X:478
T:Watch it Fall
C:Billy Strings - T Shaw's Progressive Bluegrass - 9/7/2019 Georgia Theater Athens Georgia
N:mandolin: Jarod Walker - Transcribed by Philippe Colleu
R:bluegrass
L:1/8
Q:1/4=215
M:4/4
K:C
"(115 bpm)"z2 ^FG ^GB ^cB | "E"e2 ^c/z/e2e ee | e2 B2 z2 B^c | ^ce cB ^F/G/F E2 | 
"C#m"^F^G2[^c2G2E2]G [c2G2E2] | z^G [^c4G4E4] ^f/z/^g | "B"^g^f e^c B2 [B2^F2] | 
z2 [B2^F2] A2 F^G | "A"AB ^cB ^F/G/F E2 | "E"^F/z/^G zB FE [E2B,2] | z2 E^F ^G2 BA | 
"A"B/z/^c [e/B/]z/c2B cA | [e2^c2] ^d2 c2 B2 | "E"G/^F/E B,D B,^C EF | "C#m"^GB ^ce ^f/e/c ef | 
"B"^gb ^fg f2 [f^c]e | "A"a^g ^fe f3b | "E"^g^f e3B, E^G | B2 ^d^f dB ^Gf | ^dB ^GB dB AG | 
[^G8E8] | 


